X:1
T:Marquis of Waterford. WHL.[183]
T:Marquis of Waterford. WHL.[183]
T:Attributed to James Hill elsewhere
C:Attributed to James Hill elsewhere
L:1/8
Q:1/2=75
M:4/4
K:A
V:1 treble 
V:1
 EG | AGAB Aceg | aAGA FAEA | D2 fe dcBA | (3GAB (3AGF EdcB | AGAB Aefg | aAGA FAEA | DFBd cBAG | %8
 B2 A2 A2 || cd | ecac ecdf | ecac ecdf | eAfe dcBA | (3GAB (3AGF EdcB | AGAB Aefg | aAGA FAdf | %16
 ecAc BGEG | B2 A2 A2 |] %18

